X:1
T:Victimae paschali laudes
T:Philippe Verdelot
T:Victimae paschali laudes
T:Prima pars
C:Philippe Verdelot
%%score [ 1 2 3 4 ]
L:1/8
Q:1/4=100
M:2/2
K:F
V:1 treble nm="Soprano" snm="S"
V:2 alto2 nm="Alto" snm="A"
V:3 alto nm="Tenor" snm="T"
V:4 bass3 nm="Bass" snm="B"
V:1
 z8 | z8 | z8 | z8 | G8 | F4 G4 | B4 c4 | B6 AG | A4 G4 | z8 | z2 d4 c2 | B4 c4 | B2 A3 G G2- | %13
w: ||||Vic-|ti- mae|pas- cha-|li _ _|lau- des||im- mo-|lent Chris-|ti- a- * *|
 G2 ^F2 G4- | G4 z4 | z8 | G4 B4 | c4 B2 G2 | A8 | G2 D2 F4 | G4 F2 D2- | DEFD E4 | D4 z4 | z8 | %24
w: * * ni.|_||Ag- nus|re- de- mit|o-|ves: Ag- nus|re- de- mit|_ _ _ _ o-|ves:||
 z8 | z2 d4 ^c2 | d4 c2 B2 | A4 G4 | z8 | B4 c4 | G4 A4 | G4 F4 | z4 F3 G | AB c4 c2 | A2 F2 G3 A | %35
w: |Chris- tus|in- no- cens|Pa- tri,||re- con-|ci- li-|a- vit,|re- *|* * * con-|ci- li- a- *|
 B2 A3 GFE | D4 z2 A2 | B3 ABc d2- | d2 cB c4 | B4 z4 | z8 | d4 f4 | g4 d2 f2 | e2 d4 ^c2 | d4 z4 | %45
w: |vit pec-|ca- * * * *|* * * to-|res.||Mors et|vi- ta du-|el- * *|lo|
 z8 | z8 | d4 c4 | d6 c2 | B4 A4 | G4 B4 | c4 G4 | A4 G4 | F2 A2 B2 A2- | AG G4 ^F2 | G8 | %56
w: ||con- fli-|xe- re|mi- ran-|do, Dux|vi- tae|mor- tu-|us, reg- nat vi-||vus.|
 z2 D2 F4 | G4 B4 | c4 B3 A/G/ | A4 G4 | z4 z2 F2 | B4 A4 | G3 A B2 A2- | AG G4 F2 | G4 z4 | %65
w: Dic no-|bis Ma-|ri- * * *|a, _|quid|vi- dis-|ti _ _ in|_ _ vi- *|a?|
 z4 z2 F2 | B4 A4 | G3 A B2 A2- | AG G4 ^F2 | G8 ||"^Secunda pars" B4 d4- | d4 c4 | d4 B2 G2 | %73
w: quid|vi- dis-|ti _ in vi-||a?|Se- pul-|* crum|Chris- ti vi-|
 A2 B2 c3 B | AG B3 A G2- | G2 FE ^F4 | G8- | G8 | z8 | z8 | z2 G2 c4 | =B2 c2 d4 | c2 B2 c3 B | %83
w: ven- * * *|||tis,|_||||||
 A2 G4 ^F2 | G2 B3 A A2- | AGFE D4- | D4 z4 | z4 z2 D2 | F4 G2 B2- | B2 AG A4 | G4 z2 F2 | %91
w: |* gen- * *|* * * * tis:|_|An-|ge- li- cos|_ _ _ tes-|tes, su-|
 B3 A G2 A2- | AG G4 ^F2 | G8 | z2 B2 d4 | c4 d4 | B4 c4 | A2 B3 A A2- | AG G4 ^F2 | G2 B3 A A2- | %100
w: da- ri- um et|_ _ ves- *|tes.|Sur- re-|xit Chris-|tus spes|me- * * *||a, spes _ me-|
 AG G4 ^F2 | G4 z2 G2 | c4 B4 | c4 d2 B2 | c4 A2 B2- | BA G4 ^F2 | G2 B2 A2 d2- | dc A2 B4 | A8 | %109
w: |a: prae-|ce- det|vos in Ga-|li- lae- *||||am.|
 z4 A4 | c4 d4 | A6 A2 | G2 B3 A A2- | A2 G2 A4- | A8 | z2 d2 f4 | d3 c B2 A2- | AG G4 ^F2 | G8 | %119
w: Cre-|den- dum|est ma-|gis so- * *|* * li|_|Ma- ri-|ae _ _ ve-|* * ra- *|ci|
 z8 | z4 z2 G2 | B4 A3 B | c2 d4 ^c2 | d4 z2 d2- | d2 c2 B2 A2- | AG G4 F2 | G2 B4 AG | A4 G4- | %128
w: |quam|Ju- dae- *|* o- *|rum tur-|* bae fal- la-|||* ci.|
 G4 z2 A2 | c4 d4 | A4 B4- | B2 A2 G2 F2 | E4 D4 | z8 | z4 z2 A2 | B2 G2 A2 DE | FG A3 G G2- | %137
w: _ Sci-|mus Chris-|tum sur-|* re- xis- *|* se||a|mor- tu- is ve- *||
 G2 ^F2 G4 |[M:3/2][Q:1/4=134] G8 B4 | A4 c8 | d8 z4 | d8 c4 | B6 A4 G2 | G8 ^F4 | %144
w: * * re:|Tu no-|bis, vic-|tor|Rex, mi-|se- re- *||
[M:2/2][Q:1/4=100] G4 z2 G2 | A2 B2 c4- | c2 B2 A3 G | F2 B2 c2 A2- | AG G4 ^F2 | G8- | G8 |] %151
w: re. Al-|le- lu- *||||ia.|_|
V:2
 z8 | z8 | z8 | z8 | D8 | C4 D4- | D4 F4 | G4 D2 F2- | F2 ED E4 | D4 z2 A2- | A2 F2 F4 | %11
w: ||||Vic-|ti- mae|_ pas-|cha- li lau-|* * * des|_ im-|* mo- lent|
 G4 F2 E2- | ED D4 ^C2 | D4 B,4 | z8 | z8 | z4 z2 D2 | F4 G4 | D2 F3 EDC | B,A, B,2 A,2 D2- | %20
w: Chris- ti- a-||ni. _|||Ag-|nus re-|de- * * * *|* * * mit o-|
 D2 C2 D2 F2- | FGAF G4 | F2 A4 G2 | A4 G2 F2 | E4 D2 A2- | A2 G2 A4 | G2 F2 E2 D2- | DEFDEF G2- | %28
w: ||ves: Chris- tus|in- no- cens|Pa- tri, Chris-|* tus in-|no- cens Pa- tri,|_ _ _ _ _ _ _|
 G2 F2 A2 G2- | GF G2 E2 F2- | F2 E2 F4 | D2 _E3 D D2- | D2 C2 D4 | E2 G3 FED | C2 D4 ^C2 | D8 | %36
w: * re- con- ci-|* li- a- * *|* * vit,|pec- ca- * to-||||res.|
 z2 D2 F4 | G4 D4 | z8 | z8 | z4 G4 | B4 A4 | G2 B4 A2 | G2 F2 E4 | D4 z4 | z8 | z2 D2 E2 F2 | %47
w: Mors et|vi- ta,|||Mors|et vi-|ta du- el-||lo||con- fli- xe-|
 B,2 D2 E2 F2 | B,CDEFG A2- | AG G4 ^F2 | G4 z2 G2 | E2 C2 z2 C2 | C2 F,2 C3 B, | A,2 D4 F2 | %54
w: re, con- fli- xe-|re _ _ _ _ _ mi-|* * ran- *|do, Dux|vi- tae, Dux|vi- tae mor- tu-|us, reg- nat|
 _E2 D3 CD/C/B,/A,/ | B,3 C D4- | D4 z2 A,2 | C4 D4 | F4 G4 | F3 E/D/ E4 | D2 G,2 C2 C2 | %61
w: vi- * * * * * *|* * vus.|_ Dic|no- bis|Ma- ri-|a, _ _ quid|vi- dis- ti in|
 B,3 C D4 | z2 C2 F4 | E4 D3 C | D2 _E3 D D2- | D2 C2 D4- | D8- | D8- | D8- | D8 || z4 G4 | %71
w: vi- * a?|quid vi-|dis- ti _|_ in _ vi-|* * a?|_||||Se-|
 F2 G2 A4 | F2 G3 A B2 | A2 GF E2 F2- | FEDC D2 E2- | E2 D^C D4 | B,2 G,2 C2 B,2 | C2 E2 D2 C2- | %78
w: pul- crum Chris-|ti vi- * ven-||||tis, et glo- ri-|am vi- * *|
 C2 B,2 E3 D/C/ | D2 C4 B,2 | C3 DEF G2- | G^FFE G4 | E2 G2 A2 F2- | FE C2 D4 | B,2 D4 CB, | %85
w: ||di _ _ _ _|_ _ _ _ _|* * re- sur-|* * * gen-||
 A,4 B,4 | G,4 z2 A,2 | C4 D2 F2- | F2 ED _E2 D2- | DG, G4 F2 | G2 D2 C2 D2- | D2 B,2 z2 D2- | %92
w: * tis:|_ An-|ge- li- cos|_ _ _ _ tes-||tes, su- da- ri-|* um et|
 DB, C2 D4 | B,2 C2 _E4 | D2 G2 F2 D2 | E4 D2 G2 | F2 D2 E4 | D2 B,2 D4 | C4 D4 | B,4 C4 | %100
w: _ _ ves- *|tes. Sur- re-|xit Chris- tus, sur-|re- xit Chris-|tus, sur- re-|xit Chris- tus,|sur- re-|xit Chris-|
 B,2 A,G, A,4 | G,2 D2 G4 | F4 G4 | A4 F2 G2 | E2 F3 E D2- | D2 C2 D4 | z4 D4 | F4 G4 | D4 C2 A,2 | %109
w: tus spes _ me-|a: prae- ce-|det vos|in Ga- li-|lae- * * *|* * am.|Cre-|den- dum|est ma- gis|
 B,3 CDEFD | E4 F4- | F4 _E3 D | _E2 F3 E E2- | ED D4 ^C2 | D2 D2 F4 | DEFG A4 | z2 D2 F3 E | %117
w: so- * * * * *||||* * li _|_ Ma- ri-|ae _ _ _ _|ve- ra- *|
 D2 ^C2 D4- | D8- | D8 | z2 D2 G4 | F2 D3 E F2 | E2 D2 z2 A2 | B4 A2 G2- | G2 F2 G2 F2- | FEDC D4 | %126
w: * * ci|_||quam Ju-|dae- o- * *|* rum tur-|bae fal- la-|||
 B,3 C D2 G,2 | D4 G,3 A, | B,4 A,4 | z4 z2 D2 | F4 G4 | D2 F2 E2 D2- | D^C/=B,/ C2 D4 | z8 | z8 | %135
w: ||* ci.|Sci-|mus Chris-|tum sur- re- xis-|* * * * se|||
 z2 D2 F3 E | D2 C2 B,2 A,G, | A,4 G,4 |[M:3/2] E8 D4 | F4 G8 | F8 z4 | G8 E4 | D6 F4 E2 | %143
w: a mor- tu-|is _ ve- * *|* re:|Tu no-|bis, vic-|tor|Rex, mi-|se- re- *|
 D2 C2 D8 |[M:2/2] D4 z2 E2 | F2 D2 C2 F2- | FE D2 C2 A,2- | A,2 G,4 A,2 | B,2 C2 D4- | %149
w: |re. Al-|le- lu- * *||* * ia,|al- le- lu-|
 D2 G,2 B,3 C | D8 |] %151
w: |ia.|
V:3
 z8 | z8 | z4 G,4- | G,4 F,4 | G,4 B,4 | C4 B,4- | B,2 A,G, A,4 | G,4 z4 | z8 | z2 D4 C2 | %10
w: ||Vic-|* ti-|mae pas-|cha- li|_ _ _ lau-|des||im- *|
 B,3 A,/G,/ A,4 | G,2 D4 C2 | D4 G,4 | A,4 G,4 | z2 D2 F4 | G4 D4 | C2 _E3 D D2- | D2 C2 D4- | %18
w: * * * mo-|lent Chris- ti-|* a-|* ni.|Ag- nus|re- de-|mit o- * *|* * ves:|
 D4 z4 | z8 | z8 | z2 D4 C2 | D4 C2 B,2 | A,G,A,B, C2 D2 | A,4 F4 | E2 D2 E4 | D4 z4 | F4 G4 | %28
w: _|||Chris- tus|in- no- cens|Pa- * * * tri, Chris-|tus in-|no- cens Pa-|tri,|re- con-|
 D4 E4 | D4 C4 | z8 | B,4 A,4 | G,4 B,4 | C4 G,4 | A,4 G,4 | F,4 A,4 | B,4 A,4 | G,4 z4 | D4 F4 | %39
w: ci- li-|a- vit,||ca- to-|res, re-|con- ci-|li- a-|vit pec-|ca- to-|res.|Mors et|
 G4 D2 E2 | E2 D4 ^C2 | D8 | z8 | z8 | D4 C4 | D6 C2 | B,4 A,4 | G,4 z4 | F8 | G4 D4 | _E4 D4 | %51
w: vi- ta du-|el- * *|lo|||con- fli-|xe- re|mi- ran-|do,|Dux|vi- tae|mor- tu-|
 C4 E4 | F4 E4 | D4 z2 A,2 | B,4 A,4 | G,4 z2 G,2 | B,4 C2 C2 | _E4 D4 | C4 z4 | A,4 C4 | D4 F4 | %61
w: us, reg-|nat vi-|vus. reg-|nat vi-|vus. Dic|no- bis Ma-|ri- a,|_|Dic no-|bis Ma-|
 G4 F3 E/D/ | E4 D4 | z4 z2 F,2 | B,4 A,4 | G,3 A, B,2 A,2- | A,G, G,4 ^F,2 | G,6 A,2 | B,4 A,4 | %69
w: ri- * * *|* a,|quid|vi- dis-|ti _ _ in|_ _ vi- *|||
 G,8 || z8 | z8 | B,4 D4- | D4 C4 | D4 B,2 C2- | CB,A,G, A,2 A,2 | G,4 z4 | z8 | G,4 C4 | %79
w: a?|||Se- pul-|* crum|Chris- ti vi-|* * * * * ven-|tis,||et glo-|
 B,2 C2 D4 | C6 B,A, | G,2 A,2 G,4 | z2 B,2 A,2 C2- | CB, G,2 A,4 | G,4 z4 | z4 z2 G,2 | B,4 C4 | %87
w: ri- am vi-||* * di|re- sur- gen-||tis:|An-|ge- li-|
 A,2 F,3 E,F,G, | A,4 G,4 | z4 z2 F,2 | B,3 A, G,2 A,2- | A,G, G,4 F,2 | G,4 A,4 | G,4 z2 C2 | %94
w: cos tes- * * *|* tes,|su-|da- ri- um et|_ _ ves- *||tes. Sur-|
 B,2 G,2 B,4 | A,4 z2 B,2 | D4 C4 | D4 B,2 F,2 | G,4 A,4 | G,4 z4 | z2 G,2 C4 | B,4 C4- | C4 E4 | %103
w: re- xit Chris-|tus, sur-|re- xit|Chris- tus spes|me- *|a:|prae- ce-|det vos|_ in|
 F3 EDC D2- | D2 C2 D4 | G,4 A,2 D2- | DCDE F2 B,2- | B,C D2 G,4 | z8 | D4 F4 | G4 D4- | %111
w: Ga- * * * *|* li- lae-|||* * * am.||Cre- den-|dum est|
 D2 D2 C2 _E2- | ED D4 C2 | D4 E4 | D4 z2 D2 | F4 D2 D2 | F3 E D2 C2 | B,2 A,G, A,4 | G,4 z2 G,2 | %119
w: _ ma- gis so-|||li Ma-|ri- ae, Ma-|ri- ae ve- ra-||ci quam|
 B,4 A,3 B, | C2 D4 ^C2 | D4 z2 D2 | C2 B,2 A,4 | G,4 z4 | z4 D4 | C2 B,2 A,4 | G,4 z2 D2 | F4 G4 | %128
w: Ju- dae- *|* o- *|rum tur-|bae fal- la-|ci.|tur-|bae fal- la-|ci. Sci-|mus Chris-|
 D6 D2 | C2 E3 D D2- | D2 C2 D4 | z8 | z4 z2 D2 | F3 E D2 C2 | B,2 A,G, A,4 | G,4 z4 | z8 | z8 | %138
w: tum sur-|re- xis- * *|* * se||a|mor- tu- is ve-||re:|||
[M:3/2] C8 B,4 | C4 G,8 | A,8 z4 | B,8 C4 | D8 C4 | B,4 A,8 |[M:2/2] G,8 | z4 z2 F,2 | A,2 B,2 C4 | %147
w: Tu no-|bis, vic-|tor|Rex, mi-|se- re-||re.|Al-|le- * *|
 D6 D2 | B,2 A,G, A,4 | G,8- | G,8 |] %151
w: lu- *||ia.|_|
V:4
 z8 | G,8 | F,4 G,4 | B,4 C4 | B,6 A,G, | A,4 G,4- | G,4 z4 | z8 | z2 D4 C2 | B,3 A,/G,/ F,2 F,2 | %10
w: |Vic-|ti- mae|pas- cha-|li _ _|lau- des|_||im- *|* * * * mo-|
 G,4 D,4 | G,4 A,4 | G,2 F,2 E,4 | D,4 D4 | C2 B,2 A,4 | G,2 G,2 B,4 | C4 B,2 G,2 | A,4 G,4 | %18
w: lent Chris-|ti- a-||ni. Chris-|ti- * a-|ni. Ag- nus|re- de- mit|o- ves:|
 z2 D,2 F,4 | G,4 F,2 D,2 | _E,4 D,4- | D,4 z4 | z8 | z4 z2 D2- | D2 C2 D4 | C2 B,2 A,4 | %26
w: Ag- nus|re- de- mit|o- ves:|_||Chris-|* tus in-|no- cens Pa-|
 B,3 A,/B,/ C2 G,2 | D4 z4 | B,4 C4 | G,4 A,4 | G,4 F,2 F,2 | G,4 D,4 | _E,4 D,4 | C,4 E,4 | %34
w: |tri,|re- con-|ci- li-|a- vit, re-|con- ci-|li- a-|vit pec-|
 F,4 E,4 | D,8- | D,8 | z4 G,4 | B,4 A,4 | G,2 B,4 A,2 | G,2 F,2 E,4 | D,8 | z8 | z2 F,2 G,2 A,2 | %44
w: ca- to-|res.|_|Mors|et vi-|ta du- el-||lo||con- fli- xe-|
 D,2 D,2 E,2 F,2 | B,,C,D,E,F,G, A,2- | A,G, G,4 F,2 | G,4 z4 | z8 | z8 | z2 C2 B,2 G,2 | %51
w: re, con- fli- xe-|re _ _ _ _ _ mi-|* * ran- *|do,|||Dux vi- tae|
 A,3 B, C4 | F,4 z4 | D,4 G,2 F,2 | G,4 D,4 | z4 G,4- | G,2 G,2 F,3 E,/D,/ | C,2 C2 B,3 A,/G,/ | %58
w: mor- * tu-|us,|reg- nat vi-|vus. _|Dic|_ no- bis _ _|_ Ma- ri- * *|
 A,4 G,3 F, | D,2 F,2 C,2 C2 | B,3 A,/G,/ A,4 | G,3 F, D,4 | z8 | C4 B,2 A,2 | G,4 F,2 D,2 | %65
w: a, Ma- *|* * * ri-||* * a,||quid vi- dis-|ti in _|
 _E,4 D,4 | z4 D,4 | B,3 A, G,2 ^F,2 | G,4 D,4 | G,8 || z8 | z8 | z4 G,4 | F,2 G,2 A,4 | %74
w: vi- a?|quid|vi- dis- ti in|vi- *|a?|||Se-|pul- crum Chris-|
 F,2 G,3 F,E,D, | E,2 E,2 D,4 | z4 z2 G,2 | C4 B,2 C2 | D4 C3 B,/A,/ | G,2 C,2 G,4 | C,8 | %81
w: ti vi- * * *|* ven- tis,|et|glo- ri- am|vi- * * *||di|
 z2 C4 B,2 | A,2 G,2 F,4- | F,2 E,2 D,4 | G,4 z2 D,2 | F,4 G,2 B,2- | B,2 A,G, A,2 F,2- | %87
w: re- sur-|gen- * *||tis: An-|ge- li- cos|_ _ _ _ tes-|
 F,G, A,2 D,4- | D,4 z4 | z4 D,4 | G,3 F, _E,2 D,2 | G,3 F, _E,2 D,2 | _E,4 D,4 | _E,2 C,3 D,E,F, | %94
w: * * * tes,|_|su-|da- ri- um et|ves- * * *||tes. _ _ _ _|
 G,4 z4 | z2 C2 B,2 G,2 | B,4 A,4 | D,2 G,3 F, D,2 | _E,4 D,2 D,2 | G,4 F,4 | G,4 z4 | z4 C4 | %102
w: _|Sur- re- xit|Chris- tus|spes me- * *|* a: prae-|ce- det|vos|prae-|
 F,2 A,2 G,4 | F,4 B,2 G,2 | A,3 G, F,2 G,2 | _E,4 D,4 | G,4 z4 | z8 | D,4 F,4 | G,4 D,2 D,2 | %110
w: ce- det vos|in Ga- li-|lae- * * *|* am.|_||Cre- den-|dum est ma-|
 C,2 C2 B,A,B,C | D2 D,2 A,3 B, | C2 D3 C A,2 | B,4 A,4 | D,8- | D,4 z4 | D,4 D,2 F,2 | %117
w: gis _ _ _ _ _|_ _ so- *|||li|_|Ma- ri- ae|
 G,2 E,2 D,4 | z2 G,2 B,3 A, | G,F, G,4 F,2 | E,2 D,2 E,4 | D,8 | z8 | D4 C2 B,2 | A,4 G,2 D,2 | %125
w: ve- ra- ci|quam Ju- *||dae- o- *|rum||tur- bae fal-|la- * *|
 F,2 G,2 D,4 | G,8 | z2 D,2 E,4 | G,4 D,4 | A,4 B,2 G,2 | A,4 G,4 | z8 | z2 A,2 B,2 G,2 | %133
w: |ci.|Sci- mus|Chris- tum|sur- re- *|xis- se||a mor- tu-|
 A,2 D,E,F,G, A,2- | A,G, G,4 ^F,2 | G,4 z4 | z8 | z8 |[M:3/2] C,8 G,4 | F,4 _E,8 | D,8 z4 | %141
w: is _ _ _ _ ve-||re:|||Tu no-|bis, vic-|tor|
 G,8 A,4 | G,4 F,8 | G,4 D,8 |[M:2/2] z4 C,4 | F,2 G,2 A,4 | F,2 G,2 A,G,F,E, | D,2 B,3 A, F,2 | %148
w: Rex, mi-|se- re-|* re.|Al-|le- lu- *|||
 G,2 E,2 D,4 | G,8- | G,8 |] %151
w: |ia.|_|

